flaticon/delivery/credit-card.svg

<svg xmlns="http://www.w3.org/2000/svg" width="32" height="32" viewBox="0 0 24 24">
    <path d="M 22 3.199219 L 2 3.199219 C 0.878906 3.199219 0 4.078125 0 5.199219 L 0 18.800781 C 0 19.921875 0.878906 20.800781 2 20.800781 L 22 20.800781 C 23.121094 20.800781 24 19.921875 24 18.800781 L 24 5.199219 C 24 4.078125 23.121094 3.199219 22 3.199219 Z M 2 4 L 22 4 C 22.679688 4 23.199219 4.519531 23.199219 5.199219 L 23.199219 5.601562 L 0.800781 5.601562 L 0.800781 5.199219 C 0.800781 4.519531 1.320312 4 2 4 Z M 23.199219 8.800781 L 0.800781 8.800781 L 0.800781 6.398438 L 23.199219 6.398438 Z M 22 20 L 2 20 C 1.320312 20 0.800781 19.480469 0.800781 18.800781 L 0.800781 9.601562 L 23.199219 9.601562 L 23.199219 18.800781 C 23.199219 19.480469 22.679688 20 22 20 Z M 22 20"/>
    <path d="M21.199219 13.601562L14 13.601562C13.761719 13.601562 13.601562 13.761719 13.601562 14L13.601562 18C13.601562 18.238281 13.761719 18.398438 14 18.398438L21.199219 18.398438C21.441406 18.398438 21.601562 18.238281 21.601562 18L21.601562 14C21.601562 13.761719 21.441406 13.601562 21.199219 13.601562zM20.800781 17.601562L14.398438 17.601562 14.398438 14.398438 20.800781 14.398438zM2.398438 12.398438L6 12.398438C6.199219 12.398438 6.398438 12.238281 6.398438 12 6.398438 11.761719 6.238281 11.601562 6 11.601562L2.398438 11.601562C2.160156 11.601562 2 11.761719 2 12 2 12.238281 2.160156 12.398438 2.398438 12.398438zM11.199219 11.601562L7.601562 11.601562C7.359375 11.601562 7.199219 11.761719 7.199219 12 7.199219 12.238281 7.359375 12.398438 7.601562 12.398438L11.199219 12.398438C11.441406 12.398438 11.601562 12.238281 11.601562 12 11.601562 11.761719 11.441406 11.601562 11.199219 11.601562zM8.398438 13.199219L2.398438 13.199219C2.160156 13.199219 2 13.359375 2 13.601562 2 13.839844 2.160156 14 2.398438 14L8.398438 14C8.640625 14 8.800781 13.839844 8.800781 13.601562 8.800781 13.359375 8.640625 13.199219 8.398438 13.199219zM11.199219 13.199219L10 13.199219C9.761719 13.199219 9.601562 13.359375 9.601562 13.601562 9.601562 13.839844 9.761719 14 10 14L11.199219 14C11.441406 14 11.601562 13.839844 11.601562 13.601562 11.601562 13.359375 11.441406 13.199219 11.199219 13.199219zM11.199219 13.199219"/>
</svg>

<svg xmlns="http://www.w3.org/2000/svg" width="32" height="32" viewBox="0 0 24 24">
    <path d="M22 3.2H2c-1.121 0-2 .878-2 2v13.6c0 1.122.879 2 2 2h20c1.121 0 2-.878 2-2V5.2c0-1.122-.879-2-2-2zM2 4h20c.68 0 1.2.52 1.2 1.2v.402H.8v-.403C.8 4.52 1.32 4 2 4zm21.2 4.8H.8V6.399h22.4zM22 20H2c-.68 0-1.2-.52-1.2-1.2V9.603h22.4V18.8c0 .68-.52 1.199-1.2 1.199zm0 0"/>
    <path d="M21.2 13.602H14c-.238 0-.398.16-.398.398v4c0 .238.16.398.398.398h7.2c.241 0 .402-.16.402-.398v-4c0-.238-.16-.398-.403-.398zm-.4 4h-6.402v-3.204h6.403zm0 0M2.398 12.398H6A.4.4 0 0 0 6.398 12c0-.238-.16-.398-.398-.398H2.398c-.238 0-.398.16-.398.398 0 .238.16.398.398.398zm0 0M11.2 11.602H7.601c-.243 0-.403.16-.403.398 0 .238.16.398.403.398h3.597c.242 0 .403-.16.403-.398 0-.238-.16-.398-.403-.398zm0 0M8.398 13.2h-6c-.238 0-.398.16-.398.402 0 .238.16.398.398.398h6c.243 0 .403-.16.403-.398 0-.243-.16-.403-.403-.403zm0 0M11.2 13.2H10c-.238 0-.398.16-.398.402 0 .238.16.398.398.398h1.2c.241 0 .402-.16.402-.398 0-.243-.16-.403-.403-.403zm0 0"/>
</svg>
